;FLAVOR:Marlin
;TIME:15100
;Filament used: 13.5497m
;Layer height: 0.28
;MINX:23.807
;MINY:22.7
;MINZ:0.28
;MAXX:213.407
;MAXY:212.3
;MAXZ:19.88
;Generated with Cura_SteamEngine 5.2.1
M140 S50
M105
M190 S50
M104 S200
M105
M109 S200
M82 ;absolute extrusion mode
; Ender 3 Custom Start G-code
G92 E0 ; Reset Extruder
G28 ; Home all axes
G1 Z2.0 F3000 ; Move Z Axis up little to prevent scratching of Heat Bed
G1 X0.1 Y20 Z0.3 F5000.0 ; Move to start position
G1 X0.1 Y200.0 Z0.3 F1500.0 E15 ; Draw the first line
G1 X0.4 Y200.0 Z0.3 F5000.0 ; Move to side a little
G1 X0.4 Y20 Z0.3 F1500.0 E30 ; Draw the second line
G92 E0 ; Reset Extruder
G1 Z2.0 F3000 ; Move Z Axis up little to prevent scratching of Heat Bed
G1 X5 Y20 Z0.3 F5000.0 ; Move over to prevent blob squish
G92 E0
G92 E0
G1 F2700 E-5
;LAYER_COUNT:71
;LAYER:0
M107
;MESH:BorderFootBoardPLA.stl
G0 F6000 X48.635 Y211.9 Z0.28
;TYPE:WALL-INNER
G1 F2700 E0
G1 F1200 X188.596 Y211.898 E6.51717
G1 X192.842 Y211.526 E6.71564
G1 X196.953 Y210.424 E6.91382
G1 X200.807 Y208.628 E7.11181
G1 X204.287 Y206.19 E7.30966
G1 X207.298 Y203.18 E7.50791
G1 X209.735 Y199.699 E7.70577
G1 X211.534 Y195.842 E7.90395
G1 X212.634 Y191.734 E8.10197
G1 X213.007 Y187.472 E8.30119
G1 X213.007 Y47.545 E14.81677
G1 X212.634 Y43.266 E15.01678
G1 X211.532 Y39.154 E15.21501
G1 X209.735 Y35.301 E15.41297
G1 X207.298 Y31.82 E15.61084
G1 X204.287 Y28.81 E15.80908
G1 X200.806 Y26.372 E16.00697
G1 X196.953 Y24.576 E16.20492
G1 X192.842 Y23.474 E16.4031
G1 X188.581 Y23.101 E16.60227
G1 X125.839 Y23.1 E19.5238
G1 X125.838 Y23.9 E19.56105
G1 X188.66 Y23.901 E22.48631
G1 X192.706 Y24.256 E22.67543
G1 X196.679 Y25.319 E22.86694
G1 X200.406 Y27.055 E23.05839
G1 X203.779 Y29.42 E23.25021
G1 X206.687 Y32.332 E23.44184
G1 X209.049 Y35.697 E23.63327
G1 X210.788 Y39.432 E23.82512
G1 X211.851 Y43.392 E24.01604
G1 X212.205 Y47.447 E24.20557
G1 X212.206 Y187.553 E30.7295
G1 X211.852 Y191.602 E30.91875
G1 X210.788 Y195.57 E31.11005
G1 X209.052 Y199.299 E31.30158
G1 X206.687 Y202.668 E31.49325
G1 X203.779 Y205.58 E31.68488
G1 X200.407 Y207.945 E31.87666
G1 X196.681 Y209.677 E32.06799
G1 X192.709 Y210.745 E32.25951
G1 X188.658 Y211.098 E32.44886
G1 X48.554 Y211.099 E38.97269
G1 X44.51 Y210.746 E39.16171
G1 X40.536 Y209.681 E39.35328
G1 X36.807 Y207.945 E39.54481
G1 X33.436 Y205.58 E39.73656
G1 X30.526 Y202.67 E39.92819
G1 X28.163 Y199.299 E40.11988
G1 X26.425 Y195.565 E40.31166
G1 X25.363 Y191.602 E40.50271
G1 X25.008 Y187.553 E40.69197
G1 X25.008 Y47.447 E47.21589
G1 X25.363 Y43.398 E47.40515
G1 X26.425 Y39.435 E47.5962
G1 X28.163 Y35.701 E47.78798
G1 X30.526 Y32.33 E47.97967
G1 X33.436 Y29.42 E48.1713
G1 X36.808 Y27.055 E48.36308
G1 X40.536 Y25.319 E48.55457
G1 X44.507 Y24.255 E48.746
G1 X48.556 Y23.901 E48.93526
G1 X111.377 Y23.9 E51.86047
G1 X111.376 Y23.1 E51.89772
G1 X48.618 Y23.102 E54.82
G1 X44.373 Y23.474 E55.01842
G1 X40.262 Y24.576 E55.2166
G1 X36.408 Y26.372 E55.41459
G1 X32.928 Y28.81 E55.61244
G1 X29.917 Y31.82 E55.81069
G1 X27.48 Y35.301 E56.00855
G1 X25.681 Y39.158 E56.20673
G1 X24.581 Y43.266 E56.40475
G1 X24.207 Y47.528 E56.60397
G1 X24.209 Y187.489 E63.12114
G1 X24.581 Y191.734 E63.31956
G1 X25.681 Y195.842 E63.51759
G1 X27.48 Y199.699 E63.71576
G1 X29.917 Y203.18 E63.91363
G1 X32.928 Y206.19 E64.11187
G1 X36.407 Y208.628 E64.30969
G1 X40.262 Y210.424 E64.50772
G1 X44.373 Y211.526 E64.7059
G1 X48.635 Y211.9 E64.90512
G0 F6000 X48.617 Y212.3
;TYPE:WALL-OUTER
G1 F1200 X188.597 Y212.3 E71.42317
G1 X192.912 Y211.922 E71.62487
G1 X197.091 Y210.802 E71.82633
G1 X201.007 Y208.976 E72.02752
G1 X204.545 Y206.498 E72.22866
G1 X207.606 Y203.438 E72.43019
G1 X210.083 Y199.9 E72.6313
G1 X211.912 Y195.98 E72.83272
G1 X213.03 Y191.804 E73.03402
G1 X213.407 Y187.49 E73.23567
G1 X213.407 Y47.545 E79.75209
G1 X213.03 Y43.196 E79.95536
G1 X211.91 Y39.016 E80.15686
G1 X210.083 Y35.1 E80.35808
G1 X207.606 Y31.562 E80.55918
G1 X204.545 Y28.502 E80.76072
G1 X201.007 Y26.024 E80.96186
G1 X197.091 Y24.198 E81.16305
G1 X192.912 Y23.078 E81.36451
G1 X188.599 Y22.701 E81.56611
G1 X125.44 Y22.7 E84.50706
G1 X125.437 Y24.3 E84.58156
G1 X188.625 Y24.3 E87.52386
G1 X192.638 Y24.651 E87.71143
G1 X196.559 Y25.705 E87.90049
G1 X200.191 Y27.397 E88.08706
G1 X203.519 Y29.727 E88.27623
G1 X206.38 Y32.589 E88.46467
G1 X208.701 Y35.9 E88.65295
G1 X210.413 Y39.58 E88.84194
G1 X211.458 Y43.486 E89.03022
G1 X211.807 Y47.482 E89.217
G1 X211.807 Y187.518 E95.73766
G1 X211.456 Y191.53 E95.92519
G1 X210.409 Y195.434 E96.1134
G1 X208.71 Y199.084 E96.30087
G1 X206.38 Y202.411 E96.49
G1 X203.519 Y205.273 E96.67844
G1 X200.208 Y207.594 E96.86672
G1 X196.526 Y209.307 E97.05581
G1 X192.638 Y210.349 E97.24324
G1 X188.623 Y210.7 E97.43091
G1 X48.589 Y210.7 E103.95148
G1 X44.577 Y210.349 E104.13901
G1 X40.656 Y209.295 E104.32807
G1 X37.022 Y207.603 E104.51473
G1 X33.696 Y205.273 E104.70382
G1 X30.834 Y202.411 E104.89229
G1 X28.514 Y199.1 E105.08054
G1 X26.8 Y195.417 E105.2697
G1 X25.759 Y191.53 E105.45708
G1 X25.407 Y187.518 E105.64461
G1 X25.407 Y47.482 E112.16527
G1 X25.759 Y43.47 E112.3528
G1 X26.812 Y39.55 E112.54181
G1 X28.505 Y35.916 E112.72848
G1 X30.834 Y32.589 E112.91759
G1 X33.696 Y29.727 E113.10606
G1 X37.007 Y27.406 E113.29434
G1 X40.689 Y25.693 E113.48343
G1 X44.578 Y24.651 E113.67091
G1 X48.591 Y24.3 E113.85849
G1 X111.777 Y24.3 E116.80069
G1 X111.775 Y22.7 E116.87519
G1 X48.617 Y22.7 E119.81609
G1 X44.303 Y23.078 E120.01774
G1 X40.124 Y24.198 E120.2192
G1 X36.207 Y26.024 E120.42044
G1 X32.67 Y28.502 E120.62153
G1 X29.609 Y31.562 E120.82307
G1 X27.132 Y35.1 E121.02418
G1 X25.303 Y39.02 E121.2256
G1 X24.185 Y43.196 E121.4269
G1 X23.807 Y47.51 E121.62855
G1 X23.807 Y187.49 E128.1466
G1 X24.185 Y191.804 E128.34825
G1 X25.303 Y195.98 E128.54955
G1 X27.132 Y199.9 E128.75097
G1 X29.609 Y203.438 E128.95208
G1 X32.67 Y206.498 E129.15362
G1 X36.207 Y208.976 E129.35471
G1 X40.124 Y210.802 E129.55595
G1 X44.303 Y211.922 E129.75741
G1 X48.617 Y212.3 E129.95906
G1 F2700 E124.95906
G0 F6000 X48.626 Y211.798
G0 X44.293 Y211.338
G0 X40.222 Y210.228
G0 X36.402 Y208.427
G0 X32.954 Y205.991
G0 X29.98 Y202.988
G0 X27.573 Y199.516
G0 X25.806 Y195.683
G0 X24.732 Y191.603
G0 X24.368 Y187.465
G0 X24.382 Y47.393
G0 X24.769 Y43.186
G0 X25.878 Y39.115
G0 X27.681 Y35.295
G0 X30.116 Y31.846
G0 X33.119 Y28.873
G0 X36.591 Y26.465
G0 X40.423 Y24.699
G0 X44.506 Y23.624
G0 X48.642 Y23.261
G0 X111.204 Y23.272
G0 X111.205 Y23.728
G1 F2700 E129.95906
G0 F6000 X110.976 Y23.5
;TYPE:SKIN
G1 F995.9 X48.655 Y23.501 E133.45588
G1 F1010.5 X44.457 Y23.863 E133.68887
G1 F1021.3 X40.395 Y24.952 E133.91896
G1 F1016.9 X36.607 Y26.716 E134.14856
G1 F1014.8 X33.183 Y29.115 E134.37876
G1 X30.222 Y32.074 E134.60926
G1 F1019.1 X27.825 Y35.499 E134.83847
G1 F1021.3 X26.055 Y39.293 E135.06753
G1 X24.972 Y43.332 E135.29632
G1 F1008.4 X24.608 Y47.535 E135.53008
G1 F995.9 X24.608 Y187.455 E143.38097
G1 F1006.3 X24.972 Y191.67 E143.61589
G1 F1019.1 X26.055 Y195.708 E143.84512
G1 X27.823 Y199.499 E144.07447
G1 F1014.8 X30.221 Y202.923 E144.30464
G1 F1016.9 X33.185 Y205.887 E144.53496
G1 F1021.3 X36.605 Y208.283 E144.76343
G1 F1019.1 X40.399 Y210.051 E144.99293
G1 F1016.9 X44.461 Y211.136 E145.22394
G1 F1019.1 X48.519 Y211.493 E145.4473
G1 F1021.3 X64.079 Y211.493 E146.29863
G1 F1016.9 X79.639 Y211.494 E147.15359
G1 F1014.8 X95.199 Y211.495 E148.01036
G1 F1012.7 X110.759 Y211.495 E148.86894
G1 F1008.4 X126.319 Y211.496 E149.73114
G1 F1006.3 X141.879 Y211.497 E150.59515
G1 F1004.2 X157.439 Y211.497 E151.46097
G1 F1000 X172.999 Y211.498 E152.33042
G1 F997.9 X188.559 Y211.499 E153.20168
G1 F1010.5 X192.772 Y211.135 E153.4355
G1 F1021.3 X196.819 Y210.049 E153.66476
G1 F1019.1 X200.607 Y208.285 E153.89387
G1 F1016.9 X204.033 Y205.883 E154.12377
G1 F1010.5 X206.993 Y202.921 E154.35532
G1 F1014.8 X209.39 Y199.501 E154.58528
G1 F1019.1 X211.159 Y195.709 E154.8147
G1 X212.243 Y191.666 E155.04421
G1 X212.606 Y187.496 E155.27371
G1 F1016.9 X212.606 Y167.503 E156.37224
G1 F1012.7 X212.606 Y147.51 E157.47542
G1 F1010.5 X212.606 Y127.517 E158.58094
G1 F1006.3 X212.606 Y107.524 E159.6911
G1 F1004.2 X212.606 Y87.531 E160.8036
G1 F1002.1 X212.606 Y67.538 E161.91842
G1 F997.9 X212.606 Y47.545 E163.0379
G1 F1008.4 X212.243 Y43.344 E163.27155
G1 F1021.3 X211.158 Y39.287 E163.50132
G1 F1019.1 X209.391 Y35.501 E163.7304
G1 F1016.9 X206.979 Y32.063 E163.96115
G1 F1019.1 X204.03 Y29.113 E164.18986
G1 F1025.6 X200.615 Y26.721 E164.41701
G1 X196.824 Y24.952 E164.64492
G1 F1019.1 X192.775 Y23.866 E164.87477
G1 F1016.9 X188.627 Y23.503 E165.10356
G1 F1014.8 X157.432 Y23.502 E166.82122
G1 F1008.4 X126.237 Y23.5 E168.54978
G1 F2700 E163.54978
;MESH:NONMESH
G0 F300 X126.237 Y23.5 Z0.56
G0 F6000 X125.939 Y23.5
G0 X125.706 Y24.063
G0 X188.625 Y24.061
G0 X192.677 Y24.415
G0 X196.624 Y25.473
G0 X200.327 Y27.199
G0 X203.675 Y29.543
G0 X206.564 Y32.433
G0 X208.908 Y35.78
G0 X210.634 Y39.484
G0 X211.692 Y43.43
G0 X212.046 Y47.482
G0 X212.046 Y187.518
G0 X211.692 Y191.57
G0 X210.634 Y195.516
G0 X208.908 Y199.22
G0 X206.564 Y202.567
G0 X203.675 Y205.457
G0 X200.327 Y207.801
G0 X196.624 Y209.527
G0 X192.677 Y210.585
G0 X188.625 Y210.939
G0 X44.482 Y210.901
G0 X36.724 Y208.079
G0 X30.45 Y202.821
G0 X27.996 Y199.321
G0 X25.207 Y191.626
G0 X24.848 Y47.432
G0 X26.279 Y39.374
G0 X30.364 Y32.281
G0 X33.388 Y29.257
G0 X40.478 Y25.172
G0 X48.541 Y23.741
G0 X111.205 Y23.728
G0 X111.204 Y23.272
G0 X48.503 Y23.275
G0 X44.295 Y23.661
G0 X40.223 Y24.771
G0 X36.402 Y26.573
G0 X32.954 Y29.009
G0 X29.98 Y32.012
G0 X27.574 Y35.483
G0 X25.806 Y39.317
G0 X24.732 Y43.397
G0 X24.368 Y47.535
G0 X24.382 Y187.606
G0 X24.769 Y191.814
G0 X25.878 Y195.884
G0 X27.681 Y199.704
G0 X30.116 Y203.154
G0 X33.119 Y206.127
G0 X36.589 Y208.534
G0 X40.423 Y210.301
G0 X44.504 Y211.376
G0 X48.626 Y211.798
G1 F2700 E168.54978
G0 F6000 X48.635 Y211.9
;TIME_ELAPSED:201.748900
;LAYER:1
M106 S85
;TYPE:WALL-INNER
;MESH:BorderFootBoardPLA.stl
G1 F1350 X188.596 Y211.898 E175.06695
G1 X192.842 Y211.526 E175.26542
G1 X196.953 Y210.424 E175.4636
G1 X200.807 Y208.628 E175.66159
G1 X204.287 Y206.19 E175.85945
G1 X207.298 Y203.18 E176.05769
G1 X209.735 Y199.699 E176.25556
G1 X211.534 Y195.842 E176.45373
G1 X212.634 Y191.734 E176.65175
G1 X213.007 Y187.472 E176.85097
G1 X213.007 Y47.545 E183.36656
G1 X212.634 Y43.266 E183.56656
G1 X211.532 Y39.154 E183.76479
G1 X209.735 Y35.301 E183.96275
G1 X207.298 Y31.82 E184.16062
G1 X204.287 Y28.81 E184.35886
G1 X200.806 Y26.372 E184.55676
G1 X196.953 Y24.576 E184.7547
G1 X192.842 Y23.474 E184.95288
G1 X188.581 Y23.101 E185.15205
G1 X125.84 Y23.1 E188.07354
G1 X125.84 Y23.9 E188.11079
G1 X188.66 Y23.901 E191.03595
G1 X192.706 Y24.256 E191.22507
G1 X196.679 Y25.319 E191.41658
G1 X200.406 Y27.055 E191.60803
G1 X203.779 Y29.42 E191.79985
G1 X206.687 Y32.332 E191.99148
G1 X209.049 Y35.697 E192.18291
G1 X210.788 Y39.432 E192.37476
G1 X211.851 Y43.392 E192.56568
G1 X212.205 Y47.447 E192.75522
G1 X212.206 Y187.553 E199.27914
G1 X211.852 Y191.602 E199.4684
G1 X210.788 Y195.57 E199.65969
G1 X209.052 Y199.299 E199.85122
G1 X206.687 Y202.668 E200.04289
G1 X203.779 Y205.58 E200.23452
G1 X200.407 Y207.945 E200.4263
G1 X196.681 Y209.677 E200.61763
G1 X192.709 Y210.745 E200.80915
G1 X188.658 Y211.098 E200.9985
G1 X48.554 Y211.099 E207.52233
G1 X44.51 Y210.746 E207.71135
G1 X40.536 Y209.681 E207.90292
G1 X36.807 Y207.945 E208.09446
G1 X33.436 Y205.58 E208.2862
G1 X30.526 Y202.67 E208.47783
G1 X28.163 Y199.299 E208.66952
G1 X26.425 Y195.565 E208.8613
G1 X25.363 Y191.602 E209.05235
G1 X25.008 Y187.553 E209.24161
G1 X25.008 Y47.447 E215.76553
G1 X25.363 Y43.398 E215.9548
G1 X26.425 Y39.435 E216.14584
G1 X28.163 Y35.701 E216.33762
G1 X30.526 Y32.33 E216.52931
G1 X33.436 Y29.42 E216.72094
G1 X36.808 Y27.055 E216.91273
G1 X40.536 Y25.319 E217.10422
G1 X44.507 Y24.255 E217.29564
G1 X48.556 Y23.901 E217.4849
G1 X111.376 Y23.9 E220.41006
G1 X111.376 Y23.1 E220.44732
G1 X48.618 Y23.102 E223.36959
G1 X44.373 Y23.474 E223.56801
G1 X40.262 Y24.576 E223.7662
G1 X36.408 Y26.372 E223.96419
G1 X32.928 Y28.81 E224.16204
G1 X29.917 Y31.82 E224.36028
G1 X27.48 Y35.301 E224.55815
G1 X25.681 Y39.158 E224.75632
G1 X24.581 Y43.266 E224.95435
G1 X24.207 Y47.528 E225.15357
G1 X24.209 Y187.489 E231.67074
G1 X24.581 Y191.734 E231.86916
G1 X25.681 Y195.842 E232.06718
G1 X27.48 Y199.699 E232.26536
G1 X29.917 Y203.18 E232.46322
G1 X32.928 Y206.19 E232.66147
G1 X36.407 Y208.628 E232.85928
G1 X40.262 Y210.424 E233.05731
G1 X44.373 Y211.526 E233.2555
G1 X48.635 Y211.9 E233.45472
G0 F7500 X48.617 Y212.3
;TYPE:WALL-OUTER
G1 F1350 X188.597 Y212.3 E239.97277
G1 X192.912 Y211.922 E240.17446
G1 X197.091 Y210.802 E240.37592
G1 X201.007 Y208.976 E240.57712
G1 X204.545 Y206.498 E240.77825
G1 X207.606 Y203.438 E240.97979
G1 X210.083 Y199.9 E241.1809
G1 X211.912 Y195.98 E241.38232
G1 X213.03 Y191.804 E241.58362
G1 X213.407 Y187.49 E241.78526
G1 X213.407 Y47.545 E248.30169
G1 X213.03 Y43.196 E248.50496
G1 X211.91 Y39.016 E248.70646
G1 X210.083 Y35.1 E248.90767
G1 X207.606 Y31.562 E249.10878
G1 X204.545 Y28.502 E249.31032
G1 X201.007 Y26.024 E249.51145
G1 X197.091 Y24.198 E249.71265
G1 X192.912 Y23.078 E249.91411
G1 X188.599 Y22.701 E250.1157
G1 X125.44 Y22.7 E253.05665
G1 X125.44 Y24.3 E253.13115
G1 X188.625 Y24.3 E256.07331
G1 X192.638 Y24.651 E256.26089
G1 X196.559 Y25.705 E256.44995
G1 X200.191 Y27.397 E256.63652
G1 X203.519 Y29.727 E256.82569
G1 X206.38 Y32.589 E257.01412
G1 X208.701 Y35.9 E257.20241
G1 X210.413 Y39.58 E257.3914
G1 X211.458 Y43.486 E257.57967
G1 X211.807 Y47.482 E257.76645
G1 X211.807 Y187.518 E264.28712
G1 X211.456 Y191.53 E264.47464
G1 X210.409 Y195.434 E264.66286
G1 X208.71 Y199.084 E264.85033
G1 X206.38 Y202.411 E265.03946
G1 X203.519 Y205.273 E265.22789
G1 X200.208 Y207.594 E265.41617
G1 X196.526 Y209.307 E265.60527
G1 X192.638 Y210.349 E265.7927
G1 X188.623 Y210.7 E265.98037
G1 X48.589 Y210.7 E272.50094
G1 X44.577 Y210.349 E272.68847
G1 X40.656 Y209.295 E272.87753
G1 X37.022 Y207.603 E273.06418
G1 X33.696 Y205.273 E273.25328
G1 X30.834 Y202.411 E273.44175
G1 X28.514 Y199.1 E273.63
G1 X26.8 Y195.417 E273.81916
G1 X25.759 Y191.53 E274.00653
G1 X25.407 Y187.518 E274.19406
G1 X25.407 Y47.482 E280.71473
G1 X25.759 Y43.47 E280.90226
G1 X26.812 Y39.55 E281.09126
G1 X28.505 Y35.916 E281.27794
G1 X30.834 Y32.589 E281.46705
G1 X33.696 Y29.727 E281.65551
G1 X37.007 Y27.406 E281.84379
G1 X40.689 Y25.693 E282.03289
G1 X44.578 Y24.651 E282.22037
G1 X48.591 Y24.3 E282.40794
G1 X111.781 Y24.3 E285.35033
G1 X111.776 Y22.7 E285.42484
G1 X48.617 Y22.7 E288.36578
G1 X44.303 Y23.078 E288.56743
G1 X40.124 Y24.198 E288.76889
G1 X36.207 Y26.024 E288.97013
G1 X32.67 Y28.502 E289.17122
G1 X29.609 Y31.562 E289.37276
G1 X27.132 Y35.1 E289.57387
G1 X25.303 Y39.02 E289.77529
G1 X24.185 Y43.196 E289.97659
G1 X23.807 Y47.51 E290.17824
G1 X23.807 Y187.49 E296.69629
G1 X24.185 Y191.804 E296.89794
G1 X25.303 Y195.98 E297.09924
G1 X27.132 Y199.9 E297.30066
G1 X29.609 Y203.438 E297.50177
G1 X32.67 Y206.498 E297.70331
G1 X36.207 Y208.976 E297.9044
G1 X40.124 Y210.802 E298.10564
G1 X44.303 Y211.922 E298.3071
G1 X48.617 Y212.3 E298.50875
G1 F2700 E293.50875
G0 F7500 X48.626 Y211.798
G0 X44.293 Y211.338
G0 X40.222 Y210.228
G0 X36.402 Y208.427
G0 X32.954 Y205.991
G0 X29.98 Y202.988
G0 X27.573 Y199.516
G0 X25.806 Y195.683
G0 X24.732 Y191.603
G0 X24.368 Y187.465
G0 X24.382 Y47.393
G0 X24.769 Y43.186
G0 X25.878 Y39.115
G0 X27.681 Y35.295
G0 X30.116 Y31.846
G0 X33.119 Y28.873
G0 X36.591 Y26.465
G0 X40.423 Y24.699
G0 X44.506 Y23.624
G0 X48.642 Y23.261
G0 X111.204 Y23.272
G0 X111.204 Y23.728
G1 F2700 E298.50875
G0 F7500 X110.976 Y23.5
;TYPE:SKIN
G1 F1122.7 X48.655 Y23.501 E301.99831
G1 F1136.8 X44.457 Y23.863 E302.2313
G1 F1148.9 X40.395 Y24.952 E302.4614
G1 F1144.1 X36.607 Y26.716 E302.69099
G1 F1141.6 X33.183 Y29.115 E302.92119
G1 X30.222 Y32.074 E303.15169
G1 F1146.5 X27.825 Y35.499 E303.3809
G1 F1148.9 X26.055 Y39.293 E303.60996
G1 X24.972 Y43.332 E303.83875
G1 F1134.5 X24.608 Y47.535 E304.07252
G1 F1120.3 X24.608 Y187.455 E311.92341
G1 F1132.1 X24.972 Y191.67 E312.15833
G1 F1146.5 X26.055 Y195.708 E312.38755
