;FLAVOR:Marlin
;TIME:15443
;Filament used: 13.5047m
;Layer height: 0.28
;MINX:25.536
;MINY:22.7
;MINZ:0.28
;MAXX:215.136
;MAXY:212.3
;MAXZ:20.16
;Generated with Cura_SteamEngine 5.2.1
M140 S50
M105
M190 S50
M104 S200
M105
M109 S200
M82 ;absolute extrusion mode
; Ender 3 Custom Start G-code
G92 E0 ; Reset Extruder
G28 ; Home all axes
G1 Z2.0 F3000 ; Move Z Axis up little to prevent scratching of Heat Bed
G1 X0.1 Y20 Z0.3 F5000.0 ; Move to start position
G1 X0.1 Y200.0 Z0.3 F1500.0 E15 ; Draw the first line
G1 X0.4 Y200.0 Z0.3 F5000.0 ; Move to side a little
G1 X0.4 Y20 Z0.3 F1500.0 E30 ; Draw the second line
G92 E0 ; Reset Extruder
G1 Z2.0 F3000 ; Move Z Axis up little to prevent scratching of Heat Bed
G1 X5 Y20 Z0.3 F5000.0 ; Move over to prevent blob squish
G92 E0
G92 E0
G1 F2700 E-5
;LAYER_COUNT:72
;LAYER:0
M107
;MESH:BorderFootBoardPLAV2.stl
G0 F6000 X50.276 Y210.098 Z0.28
;TYPE:WALL-INNER
G1 F2700 E0
G1 F1200 X45.928 Y209.67 E0.20344
G1 X41.687 Y208.383 E0.40981
G1 X37.771 Y206.285 E0.61668
G1 X34.355 Y203.481 E0.82246
G1 X31.551 Y200.066 E1.02822
G1 X29.452 Y196.146 E1.23527
G1 X28.166 Y191.908 E1.44149
G1 X27.738 Y187.555 E1.64516
G1 X27.738 Y47.441 E8.16946
G1 X28.166 Y43.091 E8.37299
G1 X29.452 Y38.855 E8.57913
G1 X31.551 Y34.934 E8.78622
G1 X34.355 Y31.519 E8.99197
G1 X37.771 Y28.715 E9.19776
G1 X41.691 Y26.616 E9.40481
G1 X45.928 Y25.33 E9.61099
G1 X50.283 Y24.902 E9.81476
G1 X190.396 Y24.902 E16.339
G1 X194.754 Y25.331 E16.54291
G1 X198.985 Y26.617 E16.74882
G1 X202.902 Y28.714 E16.95571
G1 X206.318 Y31.518 E17.1615
G1 X209.123 Y34.934 E17.36731
G1 X211.219 Y38.849 E17.57409
G1 X212.504 Y43.081 E17.78004
G1 X212.935 Y47.445 E17.98423
G1 X212.936 Y187.553 E24.50825
G1 X212.505 Y191.913 E24.71226
G1 X211.219 Y196.15 E24.91844
G1 X209.123 Y200.066 E25.12526
G1 X206.319 Y203.481 E25.33101
G1 X202.903 Y206.286 E25.53683
G1 X198.987 Y208.382 E25.74365
G1 X194.754 Y209.668 E25.94965
G1 X190.389 Y210.098 E26.15389
G1 X50.276 Y210.098 E32.67814
G0 F6000 X50.316 Y209.7
;TYPE:WALL-OUTER
G1 F1200 X46.023 Y209.277 E32.879
G1 X41.856 Y208.016 E33.08173
G1 X38.021 Y205.97 E33.28413
G1 X34.638 Y203.198 E33.48778
G1 X31.879 Y199.836 E33.69029
G1 X29.83 Y196.005 E33.89259
G1 X28.565 Y191.845 E34.09506
G1 X28.136 Y187.522 E34.29735
G1 X28.136 Y47.48 E40.81829
G1 X28.559 Y43.186 E41.0192
G1 X29.82 Y39.02 E41.22188
G1 X31.866 Y35.184 E41.42432
G1 X34.638 Y31.802 E41.62794
G1 X38.001 Y29.043 E41.83049
G1 X41.83 Y26.994 E42.03271
G1 X45.991 Y25.729 E42.23522
G1 X50.316 Y25.3 E42.43759
G1 X190.356 Y25.3 E48.95844
G1 X194.649 Y25.723 E49.15931
G1 X198.816 Y26.984 E49.36203
G1 X202.672 Y29.042 E49.56556
G1 X206.035 Y31.802 E49.76814
G1 X208.795 Y35.164 E49.97068
G1 X210.843 Y38.994 E50.17292
G1 X212.107 Y43.154 E50.37537
G1 X212.536 Y47.478 E50.5777
G1 X212.536 Y187.52 E57.09864
G1 X212.113 Y191.813 E57.29951
G1 X210.853 Y195.979 E57.50218
G1 X208.795 Y199.836 E57.70574
G1 X206.035 Y203.198 E57.90829
G1 X202.673 Y205.958 E58.11083
G1 X198.842 Y208.006 E58.31311
G1 X194.681 Y209.271 E58.51562
G1 X190.356 Y209.7 E58.718
G1 X50.316 Y209.7 E65.23885
G1 F2700 E60.23885
G0 F6000 X50.268 Y210.198
G0 X50.245 Y211.708
G0 X50.364 Y211.9
;TYPE:WALL-INNER
G1 F2700 E65.23885
G1 F1200 X190.308 Y211.9 E71.75522
G1 X194.57 Y211.526 E71.95444
G1 X198.683 Y210.425 E72.15271
G1 X202.535 Y208.628 E72.35063
G1 X206.016 Y206.19 E72.54852
G1 X209.026 Y203.18 E72.74673
G1 X211.464 Y199.699 E72.94462
G1 X213.263 Y195.842 E73.1428
G1 X214.362 Y191.734 E73.34081
G1 X214.736 Y187.472 E73.54003
G1 X214.736 Y47.528 E80.05641
G1 X214.362 Y43.266 E80.25563
G1 X213.262 Y39.153 E80.45388
G1 X211.464 Y35.301 E80.65182
G1 X209.026 Y31.82 E80.84971
G1 X206.016 Y28.81 E81.04792
G1 X202.535 Y26.372 E81.24581
G1 X198.682 Y24.576 E81.44376
G1 X194.57 Y23.474 E81.64199
G1 X190.308 Y23.101 E81.8412
G1 X50.364 Y23.1 E88.35758
G1 X46.102 Y23.473 E88.5568
G1 X41.991 Y24.576 E88.75499
G1 X38.137 Y26.372 E88.95298
G1 X34.657 Y28.81 E89.15083
G1 X31.646 Y31.82 E89.34908
G1 X29.209 Y35.301 E89.54694
G1 X27.41 Y39.158 E89.74512
G1 X26.31 Y43.266 E89.94314
G1 X25.936 Y47.528 E90.14236
G1 X25.936 Y187.472 E96.65874
G1 X26.309 Y191.734 E96.85796
G1 X27.409 Y195.843 E97.05603
G1 X29.209 Y199.699 E97.25418
G1 X31.646 Y203.18 E97.45204
G1 X34.657 Y206.19 E97.65029
G1 X38.137 Y208.628 E97.84814
G1 X41.991 Y210.424 E98.04613
G1 X46.102 Y211.527 E98.24432
G1 X50.112 Y211.877 E98.43176
G1 X50.364 Y211.9 E98.44354
G0 F6000 X50.346 Y212.3
;TYPE:WALL-OUTER
G1 F1200 X190.326 Y212.3 E104.96159
G1 X194.64 Y211.922 E105.16324
G1 X198.82 Y210.802 E105.36475
G1 X202.736 Y208.976 E105.56594
G1 X206.274 Y206.498 E105.76707
G1 X209.334 Y203.438 E105.96858
G1 X211.812 Y199.9 E106.16971
G1 X213.641 Y195.98 E106.37113
G1 X214.758 Y191.804 E106.57242
G1 X215.136 Y187.49 E106.77407
G1 X215.136 Y47.51 E113.29213
G1 X214.758 Y43.196 E113.49377
G1 X213.639 Y39.016 E113.69527
G1 X211.812 Y35.1 E113.89648
G1 X209.334 Y31.562 E114.09761
G1 X206.274 Y28.502 E114.29912
G1 X202.736 Y26.024 E114.50025
G1 X198.82 Y24.198 E114.70145
G1 X194.64 Y23.078 E114.90295
G1 X190.326 Y22.701 E115.10459
G1 X50.346 Y22.7 E121.62265
G1 X46.032 Y23.078 E121.8243
G1 X41.853 Y24.198 E122.02576
G1 X37.936 Y26.024 E122.22699
G1 X34.399 Y28.502 E122.42809
G1 X31.338 Y31.562 E122.62963
G1 X28.861 Y35.1 E122.83073
G1 X27.032 Y39.02 E123.03216
G1 X25.914 Y43.196 E123.23346
G1 X25.536 Y47.51 E123.4351
G1 X25.536 Y187.49 E129.95316
G1 X25.914 Y191.804 E130.15481
G1 X27.032 Y195.98 E130.35611
G1 X28.861 Y199.9 E130.55753
G1 X31.338 Y203.438 E130.75864
G1 X34.399 Y206.498 E130.96017
G1 X37.936 Y208.976 E131.16127
G1 X41.853 Y210.802 E131.36251
G1 X46.032 Y211.922 E131.56397
G1 X50.077 Y212.275 E131.75303
G1 X50.346 Y212.3 E131.76561
G0 F6000 X50.38 Y211.54
;TYPE:SKIN
G1 F1200 X190.291 Y211.54 E138.28046
G1 X194.505 Y211.169 E138.47744
G1 X198.561 Y210.084 E138.67294
G1 X202.355 Y208.314 E138.86789
G1 X205.781 Y205.914 E139.06266
G1 X208.75 Y202.945 E139.25818
G1 X211.15 Y199.519 E139.45296
G1 X212.923 Y195.718 E139.64825
G1 X214.004 Y191.669 E139.8434
G1 X214.376 Y187.456 E140.04033
G1 X214.376 Y47.567 E146.55415
G1 X214.005 Y43.332 E146.75211
G1 X212.921 Y39.275 E146.94764
G1 X211.15 Y35.481 E147.14261
G1 X208.75 Y32.055 E147.33739
G1 X205.781 Y29.086 E147.5329
G1 X202.355 Y26.686 E147.72768
G1 X198.559 Y24.917 E147.92269
G1 X194.504 Y23.83 E148.11817
G1 X190.292 Y23.462 E148.31505
G1 X50.359 Y23.462 E154.83091
G1 X46.165 Y23.829 E155.02695
G1 X42.112 Y24.917 E155.22236
G1 X38.317 Y26.686 E155.41732
G1 X34.892 Y29.086 E155.61206
G1 X31.922 Y32.055 E155.80761
G1 X29.523 Y35.481 E156.00236
G1 X27.749 Y39.283 E156.19772
G1 X26.666 Y43.332 E156.39289
G1 X26.296 Y47.544 E156.58977
G1 X26.298 Y187.48 E163.10578
G1 X26.666 Y191.669 E163.30158
G1 X27.75 Y195.719 E163.49681
G1 X29.524 Y199.519 E163.69208
G1 X31.922 Y202.945 E163.88681
G1 X34.892 Y205.914 E164.08236
G1 X38.317 Y208.314 E164.2771
G1 X42.112 Y210.083 E164.47206
G1 X46.168 Y211.17 E164.66759
G1 X50.38 Y211.54 E164.86447
G0 F6000 X50.352 Y211.798
G0 X50.129 Y211.678
G0 X50.266 Y210.279
G0 X50.25 Y210.458
G1 F1200 X45.874 Y210.027 E165.06923
G1 X41.529 Y208.708 E165.28066
G1 X37.559 Y206.579 E165.49043
G1 X34.085 Y203.72 E165.69993
G1 X31.244 Y200.262 E165.90832
G1 X29.118 Y196.282 E166.11843
G1 X27.816 Y191.995 E166.32705
G1 X27.379 Y187.597 E166.53285
G1 X27.378 Y47.413 E173.06041
G1 X27.81 Y43.033 E173.26535
G1 X29.114 Y38.726 E173.47489
G1 X31.255 Y34.727 E173.68611
G1 X34.102 Y31.261 E173.89496
G1 X37.572 Y28.412 E174.10402
G1 X41.55 Y26.283 E174.31412
G1 X45.839 Y24.98 E174.52284
G1 X50.241 Y24.543 E174.72883
G1 X190.423 Y24.542 E181.25629
G1 X194.813 Y24.975 E181.4617
G1 X199.11 Y26.278 E181.67078
G1 X203.106 Y28.416 E181.88181
G1 X206.576 Y31.263 E182.09081
G1 X209.427 Y34.738 E182.30011
G1 X211.547 Y38.698 E182.50927
G1 X212.856 Y42.997 E182.71852
G1 X213.293 Y47.422 E182.92557
G1 X213.296 Y187.565 E189.45121
G1 X212.857 Y192.003 E189.65887
G1 X211.544 Y196.309 E189.86849
G1 X209.432 Y200.252 E190.07678
G1 X206.577 Y203.736 E190.28652
G1 X203.114 Y206.578 E190.49512
G1 X199.138 Y208.71 E190.7052
G1 X194.836 Y210.019 E190.91458
G1 X190.431 Y210.457 E191.12071
G1 X50.25 Y210.458 E197.64812
G0 F6000 X50.275 Y210.198
G0 X45.959 Y209.51
G0 X41.748 Y208.232
G0 X37.869 Y206.159
G0 X35.45 Y204.513
G0 X35.16 Y204.866
G1 F1200 X38.446 Y208.152 E197.86451
G0 F6000 X39.006 Y207.58
G1 F1200 X40.565 Y209.139 E197.96718
G0 F6000 X41.446 Y208.889
G1 F1200 X42.548 Y209.99 E198.03971
G0 F6000 X43.32 Y210.198
G1 F1200 X42.262 Y209.139 E198.10942
G0 F6000 X41.624 Y209.633
G1 F1200 X40.225 Y208.234 E198.20154
G0 F6000 X39.506 Y208.645
G1 F1200 X37.786 Y206.926 E198.31477
G0 F6000 X38 Y206.527
G0 X37.235 Y206.106
G0 X36.45 Y207.226
G0 X36.579 Y206.85
G1 F1200 X30.984 Y201.255 E198.68321
G0 F6000 X30.606 Y201.519
G0 X30.379 Y201.021
G0 X31.354 Y200.089
G0 X30.899 Y200.039
G1 F1200 X29.19 Y198.33 E198.79576
G0 F6000 X29.598 Y197.607
G1 F1200 X28.2 Y196.208 E198.88785
G0 F6000 X28.948 Y196.391
G1 F1200 X27.84 Y195.283 E198.96081
G0 F6000 X27.634 Y194.511
G1 F1200 X28.69 Y195.567 E199.03035
G0 F6000 X28.444 Y194.755
G1 F1200 X27.427 Y193.739 E199.09729
G0 F6000 X28.198 Y193.943
G1 F1200 X27.22 Y192.966 E199.16166
G0 F6000 X27.951 Y193.132
G1 F1200 X27.014 Y192.194 E199.2234
G0 F6000 X27.705 Y192.32
G1 F1200 X26.848 Y191.463 E199.27983
G0 F6000 X26.794 Y190.843
G1 F1200 X27.576 Y191.625 E199.33133
G0 F6000 X27.514 Y190.997
G1 F1200 X26.739 Y190.223 E199.38233
G0 F6000 X26.685 Y189.602
G1 F1200 X27.452 Y190.369 E199.43284
G0 F6000 X27.39 Y189.742
G1 F1200 X26.631 Y188.982 E199.48285
G0 F6000 X26.575 Y188.361
G1 F1200 X27.328 Y189.114 E199.53244
G0 F6000 X27.266 Y188.486
G1 F1200 X26.521 Y187.741 E199.5815
G0 F6000 X26.495 Y187.15
G1 F1200 X27.203 Y187.858 E199.62812
G0 F6000 X27.179 Y187.268
G1 F1200 X26.495 Y186.584 E199.67316
G0 F6000 X26.495 Y186.019
G1 F1200 X27.179 Y186.703 E199.71821
G0 F6000 X27.179 Y186.137
G1 F1200 X26.495 Y185.453 E199.76325
G0 F6000 X26.495 Y184.887
G1 F1200 X27.179 Y185.571 E199.80829
G0 F6000 X27.179 Y185.006
G1 F1200 X26.495 Y184.322 E199.85333
G0 F6000 X26.495 Y183.756
G1 F1200 X27.179 Y184.44 E199.89838
G0 F6000 X27.179 Y183.874
G1 F1200 X26.495 Y183.19 E199.94342
G0 F6000 X26.495 Y182.625
G1 F1200 X27.179 Y183.308 E199.98843
G0 F6000 X27.179 Y182.743
G1 F1200 X26.495 Y182.059 E200.03347
G0 F6000 X26.495 Y181.493
G1 F1200 X27.179 Y182.177 E200.07851
G0 F6000 X27.179 Y181.611
G1 F1200 X26.495 Y180.928 E200.12352
G0 F6000 X26.495 Y180.362
G1 F1200 X27.179 Y181.046 E200.16857
G0 F6000 X27.179 Y180.48
G1 F1200 X26.495 Y179.796 E200.21361
G0 F6000 X26.495 Y179.231
G1 F1200 X27.179 Y179.914 E200.25862
G0 F6000 X27.179 Y179.349
G1 F1200 X26.495 Y178.665 E200.30366
G0 F6000 X26.495 Y178.099
G1 F1200 X27.179 Y178.783 E200.3487
G0 F6000 X27.179 Y178.217
G1 F1200 X26.495 Y177.534 E200.39371
G0 F6000 X26.495 Y176.968
G1 F1200 X27.179 Y177.652 E200.43876
G0 F6000 X27.179 Y177.086
G1 F1200 X26.495 Y176.402 E200.4838
G0 F6000 X26.495 Y175.836
G1 F1200 X27.179 Y176.52 E200.52884
G0 F6000 X27.179 Y175.955
G1 F1200 X26.495 Y175.271 E200.57388
G0 F6000 X26.495 Y174.705
G1 F1200 X27.179 Y175.389 E200.61893
G0 F6000 X27.179 Y174.823
G1 F1200 X26.495 Y174.139 E200.66397
G0 F6000 X26.495 Y173.574
G1 F1200 X27.179 Y174.257 E200.70898
G0 F6000 X27.179 Y173.692
G1 F1200 X26.495 Y173.008 E200.75402
G0 F6000 X26.495 Y172.442
G1 F1200 X27.179 Y173.126 E200.79906
G0 F6000 X27.179 Y172.56
G1 F1200 X26.495 Y171.877 E200.84407
G0 F6000 X26.495 Y171.311
G1 F1200 X27.179 Y171.995 E200.88912
G0 F6000 X27.179 Y171.429
G1 F1200 X26.495 Y170.745 E200.93416
G0 F6000 X26.495 Y170.18
G1 F1200 X27.179 Y170.863 E200.97917
G0 F6000 X27.179 Y170.298
G1 F1200 X26.495 Y169.614 E201.02421
G0 F6000 X26.495 Y169.048
G1 F1200 X27.179 Y169.732 E201.06925
G0 F6000 X27.179 Y169.166
G1 F1200 X26.495 Y168.483 E201.11426
G0 F6000 X26.495 Y167.917
G1 F1200 X27.179 Y168.601 E201.1593
G0 F6000 X27.179 Y168.035
G1 F1200 X26.495 Y167.351 E201.20435
G0 F6000 X26.495 Y166.785
G1 F1200 X27.179 Y167.469 E201.24939
G0 F6000 X27.179 Y166.904
G1 F1200 X26.495 Y166.22 E201.29443
G0 F6000 X26.495 Y165.654
G1 F1200 X27.179 Y166.338 E201.33947
G0 F6000 X27.179 Y165.772
G1 F1200 X26.495 Y165.088 E201.38452
G0 F6000 X26.495 Y164.523
G1 F1200 X27.179 Y165.207 E201.42956
G0 F6000 X27.179 Y164.641
G1 F1200 X26.495 Y163.957 E201.4746
G0 F6000 X26.495 Y163.391
G1 F1200 X27.179 Y164.075 E201.51965
G0 F6000 X27.179 Y163.509
G1 F1200 X26.495 Y162.826 E201.56465
G0 F6000 X26.495 Y162.26
G1 F1200 X27.179 Y162.944 E201.6097
G0 F6000 X27.179 Y162.378
G1 F1200 X26.495 Y161.694 E201.65474
G0 F6000 X26.495 Y161.129
G1 F1200 X27.179 Y161.812 E201.69975
G0 F6000 X27.179 Y161.247
G1 F1200 X26.495 Y160.563 E201.74479
G0 F6000 X26.495 Y159.997
G1 F1200 X27.179 Y160.681 E201.78983
G0 F6000 X27.179 Y160.115
G1 F1200 X26.495 Y159.432 E201.83484
G0 F6000 X26.495 Y158.866
G1 F1200 X27.179 Y159.55 E201.87989
G0 F6000 X27.179 Y158.984
G1 F1200 X26.495 Y158.3 E201.92493
G0 F6000 X26.495 Y157.735
G1 F1200 X27.179 Y158.418 E201.96994
G0 F6000 X27.179 Y157.853
G1 F1200 X26.495 Y157.169 E202.01498
G0 F6000 X26.495 Y156.603
G1 F1200 X27.179 Y157.287 E202.06002
G0 F6000 X27.179 Y156.721
G1 F1200 X26.495 Y156.037 E202.10507
G0 F6000 X26.495 Y155.472
G1 F1200 X27.179 Y156.156 E202.15011
G0 F6000 X27.179 Y155.59
G1 F1200 X26.495 Y154.906 E202.19515
G0 F6000 X26.495 Y154.34
G1 F1200 X27.179 Y155.024 E202.24019
G0 F6000 X27.179 Y154.458
G1 F1200 X26.495 Y153.775 E202.2852
G0 F6000 X26.495 Y153.209
G1 F1200 X27.179 Y153.893 E202.33025
G0 F6000 X27.179 Y153.327
G1 F1200 X26.495 Y152.643 E202.37529
G0 F6000 X26.495 Y152.078
G1 F1200 X27.179 Y152.761 E202.4203
G0 F6000 X27.179 Y152.196
G1 F1200 X26.495 Y151.512 E202.46534
G0 F6000 X26.495 Y150.946
G1 F1200 X27.179 Y151.63 E202.51038
G0 F6000 X27.179 Y151.064
G1 F1200 X26.495 Y150.381 E202.55539
G0 F6000 X26.495 Y149.815
G1 F1200 X27.179 Y150.499 E202.60044
G0 F6000 X27.179 Y149.933
G1 F1200 X26.495 Y149.249 E202.64548
G0 F6000 X26.495 Y148.684
G1 F1200 X27.179 Y149.367 E202.69049
G0 F6000 X27.179 Y148.802
G1 F1200 X26.495 Y148.118 E202.73553
G0 F6000 X26.495 Y147.552
G1 F1200 X27.179 Y148.236 E202.78057
G0 F6000 X27.179 Y147.67
G1 F1200 X26.495 Y146.986 E202.82562
G0 F6000 X26.495 Y146.421
G1 F1200 X27.179 Y147.105 E202.87066
G0 F6000 X27.179 Y146.539
G1 F1200 X26.495 Y145.855 E202.9157
G0 F6000 X26.495 Y145.289
G1 F1200 X27.179 Y145.973 E202.96074
G0 F6000 X27.179 Y145.408
G1 F1200 X26.495 Y144.724 E203.00579
G0 F6000 X26.495 Y144.158
G1 F1200 X27.179 Y144.842 E203.05083
G0 F6000 X27.179 Y144.276
G1 F1200 X26.495 Y143.592 E203.09587
G0 F6000 X26.495 Y143.027
G1 F1200 X27.179 Y143.71 E203.14088
G0 F6000 X27.179 Y143.145
G1 F1200 X26.495 Y142.461 E203.18592
G0 F6000 X26.495 Y141.895
G1 F1200 X27.179 Y142.579 E203.23097
G0 F6000 X27.179 Y142.013
G1 F1200 X26.495 Y141.33 E203.27598
G0 F6000 X26.495 Y140.764
G1 F1200 X27.179 Y141.448 E203.32102
G0 F6000 X27.179 Y140.882
G1 F1200 X26.495 Y140.198 E203.36606
G0 F6000 X26.495 Y139.633
G1 F1200 X27.179 Y140.316 E203.41107
G0 F6000 X27.179 Y139.751
G1 F1200 X26.495 Y139.067 E203.45611
G0 F6000 X26.495 Y138.501
G1 F1200 X27.179 Y139.185 E203.50116
G0 F6000 X27.179 Y138.619
G1 F1200 X26.495 Y137.936 E203.54617
G0 F6000 X26.495 Y137.37
G1 F1200 X27.179 Y138.054 E203.59121
G0 F6000 X27.179 Y137.488
G1 F1200 X26.495 Y136.804 E203.63625
G0 F6000 X26.495 Y136.238
G1 F1200 X27.179 Y136.922 E203.68129
G0 F6000 X27.179 Y136.357
G1 F1200 X26.495 Y135.673 E203.72634
G0 F6000 X26.495 Y135.107
G1 F1200 X27.179 Y135.791 E203.77138
G0 F6000 X27.179 Y135.225
G1 F1200 X26.495 Y134.541 E203.81642
G0 F6000 X26.495 Y133.976
G1 F1200 X27.179 Y134.66 E203.86146
G0 F6000 X27.179 Y134.094
G1 F1200 X26.495 Y133.41 E203.90651
G0 F6000 X26.495 Y132.844
G1 F1200 X27.179 Y133.528 E203.95155
G0 F6000 X27.179 Y132.962
G1 F1200 X26.495 Y132.279 E203.99656
G0 F6000 X26.495 Y131.713
G1 F1200 X27.179 Y132.397 E204.0416
G0 F6000 X27.179 Y131.831
G1 F1200 X26.495 Y131.147 E204.08664
G0 F6000 X26.495 Y130.582
